public/taptap.svg

<svg width="300" height="300" viewBox="0 0 300 300" fill="none" xmlns="http://www.w3.org/2000/svg">
<path d="M229.694 0H70.3063C31.4772 0 0 31.4772 0 70.3063V229.694C0 268.523 31.4772 300 70.3063 300H229.694C268.523 300 300 268.523 300 229.694V70.3063C300 31.4772 268.523 0 229.694 0Z" fill="url(#paint0_linear_562_2025)"/>
<path d="M179.112 177.19C177.676 175.777 177.032 172.929 177.032 167.944V126.405C177.032 121.815 173.607 118.752 166.554 117.046C162.044 115.96 156.596 115.101 150.605 115.101C142.071 115.101 132.441 116.831 122.855 122.098C113.293 127.354 106.251 136.261 103.549 146.536C102.419 150.842 99.5367 165.796 109.89 177.54C115.395 183.791 123.793 187.431 132.384 187.273C141.449 187.103 149.135 182.627 152.583 179.213C155.669 182.39 160.054 183.735 165.808 183.735C171.561 183.735 176.953 181.757 179.858 179.451C180.457 178.976 180.355 178.061 179.711 177.654C179.496 177.518 179.304 177.36 179.112 177.179V177.19ZM148.898 155.59C148.898 161.818 145.959 164.7 143.484 166.034C142.139 166.757 140.748 167.006 139.505 167.006C137.99 167.006 136.702 166.633 135.99 166.305C133.085 164.937 131.514 162.462 131.028 158.517C130.655 155.488 130.361 147.7 135.639 140.658C138.793 136.453 143.427 133.65 146.977 133.831C148.039 133.887 148.898 134.792 148.898 135.843V155.601V155.59Z" fill="white"/>
<path d="M232.44 110.105C223.375 110.275 215.689 114.751 212.241 118.164C209.167 114.988 204.77 113.643 199.028 113.643C193.286 113.643 187.894 115.621 184.978 117.927C184.379 118.402 184.481 119.317 185.125 119.724C185.34 119.86 185.532 120.018 185.724 120.199C187.16 121.612 187.792 124.46 187.792 129.434V170.973C187.792 171.041 187.792 171.12 187.792 171.188V203.843C187.792 206.454 190.042 208.489 192.642 208.218L206.036 206.861C211.654 206.296 215.926 201.56 215.926 195.908V179.711C222.844 182.084 235.628 181.406 245.1 175.811C253.216 171.019 259.184 162.971 261.795 151.871C262.812 147.542 265.288 131.581 254.934 119.826C249.429 113.575 241.031 109.936 232.44 110.094V110.105ZM229.185 156.754C226.031 160.947 221.397 163.762 217.848 163.581C216.785 163.524 215.926 162.62 215.926 161.569V141.811C215.926 135.583 218.865 132.7 221.341 131.367C222.686 130.643 224.076 130.395 225.319 130.395C226.834 130.395 228.122 130.768 228.835 131.095C231.74 132.463 233.311 134.938 233.797 138.883C234.17 141.913 234.464 149.701 229.185 156.743V156.754Z" fill="white"/>
<path d="M118.176 108.297V96.3718C118.176 93.7721 115.926 91.7375 113.338 91.9975L65.6269 96.7901C65.6269 96.7901 63.1401 97.0161 60.7099 97.1856C56.3807 97.4908 53.1141 97.5813 50.6839 96.5188C49.271 95.8971 47.3721 94.5181 46.4227 92.3818C46.1062 91.681 45.1792 91.5227 44.648 92.0766C41.8561 95.0154 39.0868 99.4463 38.0017 103.561C36.8148 108.048 36.4871 113.982 40.1493 118.413C42.8056 121.635 47.4511 124.393 57.4545 123.387C59.8282 123.149 62.3376 122.889 63.7732 122.742C64.4174 122.674 64.9712 123.183 64.9712 123.828V185.396C64.9712 188.007 67.2206 190.042 69.8204 189.771L84.6955 188.267C90.3132 187.702 94.5859 182.966 94.5859 177.315V120.617C94.5859 120.052 95.0154 119.589 95.5692 119.532L109.28 118.153C114.344 117.645 118.187 113.383 118.187 108.297H118.176Z" fill="white"/>
<defs>
<linearGradient id="paint0_linear_562_2025" x1="94.1675" y1="-3.40229" x2="193.286" y2="299.537" gradientUnits="userSpaceOnUse">
<stop stop-color="#01F3C7"/>
<stop offset="0.489583" stop-color="#00D8C4"/>
<stop offset="1" stop-color="#00CEE2"/>
</linearGradient>
</defs>
</svg>

<svg xmlns="http://www.w3.org/2000/svg" width="300" height="300" fill="none" viewBox="0 0 300 300"><path fill="url(#a)" d="M229.694 0H70.306C31.477 0 0 31.477 0 70.306v159.388C0 268.523 31.477 300 70.306 300h159.388C268.523 300 300 268.523 300 229.694V70.306C300 31.477 268.523 0 229.694 0"/><path fill="#fff" d="M179.112 177.19c-1.436-1.413-2.08-4.261-2.08-9.246v-41.539c0-4.59-3.425-7.653-10.478-9.359-4.51-1.086-9.958-1.945-15.949-1.945-8.534 0-18.164 1.73-27.75 6.997-9.562 5.256-16.604 14.163-19.306 24.438-1.13 4.306-4.012 19.26 6.341 31.004 5.505 6.251 13.903 9.891 22.494 9.733 9.065-.17 16.751-4.646 20.199-8.06 3.086 3.177 7.471 4.522 13.225 4.522s11.145-1.978 14.05-4.284c.599-.475.497-1.39-.147-1.797a4 4 0 0 1-.599-.475zm-30.214-21.6c0 6.228-2.939 9.11-5.414 10.444-1.345.723-2.736.972-3.979.972-1.515 0-2.803-.373-3.515-.701-2.905-1.368-4.476-3.843-4.962-7.788-.373-3.029-.667-10.817 4.611-17.859 3.154-4.205 7.788-7.008 11.338-6.827 1.062.056 1.921.961 1.921 2.012v19.758zm83.542-45.485c-9.065.17-16.751 4.646-20.199 8.059-3.074-3.176-7.471-4.521-13.213-4.521s-11.134 1.978-14.05 4.284c-.599.475-.497 1.39.147 1.797.215.136.407.294.599.475 1.436 1.413 2.068 4.261 2.068 9.235v74.409a4.39 4.39 0 0 0 4.85 4.375l13.394-1.357c5.618-.565 9.89-5.301 9.89-10.953v-16.197c6.918 2.373 19.702 1.695 29.174-3.9 8.116-4.792 14.084-12.84 16.695-23.94 1.017-4.329 3.493-20.29-6.861-32.045-5.505-6.251-13.903-9.89-22.494-9.732zm-3.255 46.649c-3.154 4.193-7.788 7.008-11.337 6.827-1.063-.057-1.922-.961-1.922-2.012v-19.758c0-6.228 2.939-9.111 5.415-10.444 1.345-.724 2.735-.972 3.978-.972 1.515 0 2.803.373 3.516.7 2.905 1.368 4.476 3.843 4.962 7.788.373 3.03.667 10.818-4.612 17.86z"/><path fill="#fff" d="M118.176 108.297V96.372a4.4 4.4 0 0 0-4.838-4.374L65.627 96.79s-2.487.226-4.917.396c-4.33.305-7.596.395-10.026-.667-1.413-.622-3.312-2-4.261-4.137a1.088 1.088 0 0 0-1.775-.305c-2.792 2.938-5.561 7.37-6.646 11.484-1.187 4.487-1.515 10.421 2.147 14.852 2.657 3.222 7.302 5.98 17.306 4.974 2.373-.238 4.883-.498 6.318-.645a1.087 1.087 0 0 1 1.198 1.086v61.568a4.39 4.39 0 0 0 4.85 4.375l14.874-1.504c5.618-.565 9.89-5.301 9.89-10.952v-56.698c0-.565.43-1.028.984-1.085l13.711-1.379a9.897 9.897 0 0 0 8.907-9.856z"/><defs><linearGradient id="a" x1="94.168" x2="193.286" y1="-3.402" y2="299.537" gradientUnits="userSpaceOnUse"><stop stop-color="#01f3c7"/><stop offset=".49" stop-color="#00d8c4"/><stop offset="1" stop-color="#00cee2"/></linearGradient></defs></svg>
